X: 21945
T: Kitty Got A Clinking Coming From The Fair
R: hornpipe
M: 4/4
K: Gmajor
BG G2 c3e|dBGA BA A2|GB B2 c3e|dBGB (3ABA GD|
GB B2 cded|.dBGA BA A2|.c2 cB cege|dBGB (3 ABA G2||
G2 Bd .g2 ge|edB.d .de g2|G2 Bd g3 d|(3.e.f.g dB (3ABA G2|
G2 Bd .g2 ge|edBd dega|bgaf gedB|(3.e.f.g dB (3ABA GD||

